X: 1831
T: Sûzidil Seyir
C: Erol Bingöl
O: Turkey
F: http://compmusic.upf.edu/node/140
N: suzidil--seyir--aksak--1--erol_bingol
N: makam= suzidil
N: form= seyir
N: usul= aksak = 9/8
M: 9/8
L: 1/16
K: C ^1/4f ^g ^d 
Q: 1/4=120
%%MIDI tuningsystem comma53
d4 e4 e4 g2f2 e2 | e3dc2 d2e8z2  | g2a4g2 a2b2 c'2b2 a2 | \
w:   |   |   | 
b3ag2 a2b8z2  | 
w:   | 
a2bc' b2a2 g2f2 e4 d2 | c2 B2d2 cBB8z2  | \
w:   |   | 
B2c2 d2e2 d2c2 B2A2 B2 | 
w:   | 
G3FGF FEE8z2  | |


